packages/ui-icons/svg/Line/quiz-title.svg

<svg viewBox="0 0 1920 1920" xmlns="http://www.w3.org/2000/svg">
    <path d="M1751 0v1920H169V0h1582Zm-115 112H290v9h-1v1678h1v20h1346V112Zm-234 235v321H514V347h888Z" fill-rule="evenodd"/>
</svg>

<svg viewBox="0 0 1920 1920" version="1.1" xmlns="http://www.w3.org/2000/svg">
    <path d="M1751,0 L1751,1920 L169,1920 L169,0 L1751,0 Z M1636,112 L290,112 L290,121 L289,121 L289,1799 L290,1799 L290,1819 L1636,1819 L1636,112 Z M1402,347 L1402,668 L514,668 L514,347 L1402,347 Z" stroke="none" stroke-width="1" fill-rule="evenodd"/>
</svg>
